web/www/src/assets/img/instellingen/fitbit_actief.svg

<svg fill="none" height="32" viewBox="0 0 32 32" width="32" xmlns="http://www.w3.org/2000/svg"><path d="m18.2007 3.325c0 1.29167-1.0333 2.325-2.325 2.325s-2.325-1.03333-2.325-2.325 1.0333-2.325 2.325-2.325 2.325 1.03333 2.325 2.325zm-2.325 4.17639c-1.3347 0-2.4111 1.07639-2.4111 2.41111 0 1.3347 1.0764 2.4111 2.4111 2.4111s2.4111-1.0764 2.4111-2.4111c0-1.33472-1.0764-2.41111-2.4111-2.41111zm0 6.47981c-1.3778 0-2.5188 1.1195-2.5188 2.5188 0 1.3778 1.1195 2.5187 2.5188 2.5187s2.5187-1.1409 2.5187-2.5187-1.1194-2.5188-2.5187-2.5188zm0 6.6952c-1.3347 0-2.4111 1.0764-2.4111 2.4111s1.0764 2.4111 2.4111 2.4111 2.4111-1.0764 2.4111-2.4111c.0215-1.3347-1.0764-2.4111-2.4111-2.4111zm0 6.6736c-1.2917 0-2.325 1.0333-2.325 2.325s1.0333 2.325 2.325 2.325 2.325-1.0333 2.325-2.325-1.0333-2.325-2.325-2.325zm6.4153-20.17153c-1.507 0-2.7341 1.22709-2.7341 2.73403 0 1.5069 1.2271 2.734 2.7341 2.734 1.5069 0 2.734-1.2271 2.734-2.734 0-1.50694-1.2271-2.73403-2.734-2.73403zm0 6.50143c-1.55 0-2.8202 1.2701-2.8202 2.8201s1.2702 2.8201 2.8202 2.8201 2.8201-1.2701 2.8201-2.8201-1.2701-2.8201-2.8201-2.8201zm0 6.6736c-1.507 0-2.7341 1.2271-2.7341 2.734s1.2271 2.734 2.7341 2.734c1.5069 0 2.734-1.2271 2.734-2.734s-1.2271-2.734-2.734-2.734zm6.5659-6.9966c-1.7222 0-3.143 1.3994-3.143 3.1431s1.3993 3.1431 3.143 3.1431c1.7223 0 3.1431-1.3994 3.1431-3.1431s-1.3993-3.1431-3.1431-3.1431zm-19.46107-5.55412c-1.1625 0-2.10972.94722-2.10972 2.10972s.94722 2.1097 2.10972 2.1097c1.16247 0 2.10977-.9472 2.10977-2.1097s-.9473-2.10972-2.10977-2.10972zm0 6.50142c-1.22708 0-2.19583.9902-2.19583 2.1958 0 1.2271.99028 2.1958 2.19583 2.1958 1.20557 0 2.19587-.9687 2.19587-2.1958s-.9903-2.1958-2.19587-2.1958zm0 6.6736c-1.1625 0-2.10972.9472-2.10972 2.1097s.94722 2.1097 2.10972 2.1097c1.16247 0 2.10977-.9472 2.10977-2.1097s-.9473-2.1097-2.10977-2.1097zm-6.50139-6.3722c-1.05486 0-1.89444.8395-1.89444 1.8944s.83958 1.8944 1.89444 1.8944c1.05487 0 1.89445-.8395 1.89445-1.8944s-.86111-1.8944-1.89445-1.8944z" fill="#fff"/></svg>

<svg width="32" height="32" viewBox="0 0 32 32" fill="none" xmlns="http://www.w3.org/2000/svg">
<path d="M18.2007 3.325C18.2007 4.61667 17.1674 5.65 15.8757 5.65C14.584 5.65 13.5507 4.61667 13.5507 3.325C13.5507 2.03333 14.584 1 15.8757 1C17.1674 1 18.2007 2.03333 18.2007 3.325ZM15.8757 7.50139C14.541 7.50139 13.4646 8.57778 13.4646 9.9125C13.4646 11.2472 14.541 12.3236 15.8757 12.3236C17.2104 12.3236 18.2868 11.2472 18.2868 9.9125C18.2868 8.57778 17.2104 7.50139 15.8757 7.50139ZM15.8757 13.9812C14.4979 13.9812 13.3569 15.1007 13.3569 16.5C13.3569 17.8778 14.4764 19.0187 15.8757 19.0187C17.275 19.0187 18.3944 17.8778 18.3944 16.5C18.3944 15.1222 17.275 13.9812 15.8757 13.9812ZM15.8757 20.6764C14.541 20.6764 13.4646 21.7528 13.4646 23.0875C13.4646 24.4222 14.541 25.4986 15.8757 25.4986C17.2104 25.4986 18.2868 24.4222 18.2868 23.0875C18.3083 21.7528 17.2104 20.6764 15.8757 20.6764ZM15.8757 27.35C14.584 27.35 13.5507 28.3833 13.5507 29.675C13.5507 30.9667 14.584 32 15.8757 32C17.1674 32 18.2007 30.9667 18.2007 29.675C18.2007 28.3833 17.1674 27.35 15.8757 27.35ZM22.291 7.17847C20.784 7.17847 19.5569 8.40556 19.5569 9.9125C19.5569 11.4194 20.784 12.6465 22.291 12.6465C23.7979 12.6465 25.025 11.4194 25.025 9.9125C25.025 8.40556 23.7979 7.17847 22.291 7.17847ZM22.291 13.6799C20.741 13.6799 19.4708 14.95 19.4708 16.5C19.4708 18.05 20.741 19.3201 22.291 19.3201C23.841 19.3201 25.1111 18.05 25.1111 16.5C25.1111 14.95 23.841 13.6799 22.291 13.6799ZM22.291 20.3535C20.784 20.3535 19.5569 21.5806 19.5569 23.0875C19.5569 24.5944 20.784 25.8215 22.291 25.8215C23.7979 25.8215 25.025 24.5944 25.025 23.0875C25.025 21.5806 23.7979 20.3535 22.291 20.3535ZM28.8569 13.3569C27.1347 13.3569 25.7139 14.7563 25.7139 16.5C25.7139 18.2437 27.1132 19.6431 28.8569 19.6431C30.5792 19.6431 32 18.2437 32 16.5C32 14.7563 30.6007 13.3569 28.8569 13.3569ZM9.39583 7.80278C8.23333 7.80278 7.28611 8.75 7.28611 9.9125C7.28611 11.075 8.23333 12.0222 9.39583 12.0222C10.5583 12.0222 11.5056 11.075 11.5056 9.9125C11.5056 8.75 10.5583 7.80278 9.39583 7.80278ZM9.39583 14.3042C8.16875 14.3042 7.2 15.2944 7.2 16.5C7.2 17.7271 8.19028 18.6958 9.39583 18.6958C10.6014 18.6958 11.5917 17.7271 11.5917 16.5C11.5917 15.2729 10.6014 14.3042 9.39583 14.3042ZM9.39583 20.9778C8.23333 20.9778 7.28611 21.925 7.28611 23.0875C7.28611 24.25 8.23333 25.1972 9.39583 25.1972C10.5583 25.1972 11.5056 24.25 11.5056 23.0875C11.5056 21.925 10.5583 20.9778 9.39583 20.9778ZM2.89444 14.6056C1.83958 14.6056 1 15.4451 1 16.5C1 17.5549 1.83958 18.3944 2.89444 18.3944C3.94931 18.3944 4.78889 17.5549 4.78889 16.5C4.78889 15.4451 3.92778 14.6056 2.89444 14.6056Z" fill="white"/>
</svg>
